X: 3469
T: Betty Whelan's Farewell
R: jig
M: 6/8
K: Gmajor
|:EBB BAB|dBB BAG|FAA AFA|DAA AGF|
EBB BAB|def gfg|edB BAF|GEE E3:|
|:eBB BAB|def gfe|fdd AFA|DFA dFA|
eBB BAB|def gfg|edB BAF|GEE E3:|
|:Bdf gfg|agf gfg|ege edB|ege edB|
Bdf gfg|agf gfg|edB BAF|GEE E3:|

